Sweet-Rainbow/icons/accessories-ebook-reader.svg

<?xml version="1.0" encoding="UTF-8" standalone="no"?>
<!-- Generator: Gravit.io -->

<svg
   xmlns:dc="http://purl.org/dc/elements/1.1/"
   xmlns:cc="http://creativecommons.org/ns#"
   xmlns:rdf="http://www.w3.org/1999/02/22-rdf-syntax-ns#"
   xmlns:svg="http://www.w3.org/2000/svg"
   xmlns="http://www.w3.org/2000/svg"
   xmlns:sodipodi="http://sodipodi.sourceforge.net/DTD/sodipodi-0.dtd"
   xmlns:inkscape="http://www.inkscape.org/namespaces/inkscape"
   style="isolation:isolate"
   viewBox="0 0 36 36"
   width="48"
   height="48"
   version="1.1"
   id="svg9"
   sodipodi:docname="accessories-ebook-reader.svg"
   inkscape:version="0.92.4 (5da689c313, 2019-01-14)">
  <metadata
     id="metadata15">
    <rdf:RDF>
      <cc:Work
         rdf:about="">
        <dc:format>image/svg+xml</dc:format>
        <dc:type
           rdf:resource="http://purl.org/dc/dcmitype/StillImage" />
        <dc:title></dc:title>
      </cc:Work>
    </rdf:RDF>
  </metadata>
  <defs
     id="defs13" />
  <sodipodi:namedview
     pagecolor="#ffffff"
     bordercolor="#666666"
     borderopacity="1"
     objecttolerance="10"
     gridtolerance="10"
     guidetolerance="10"
     inkscape:pageopacity="0"
     inkscape:pageshadow="2"
     inkscape:window-width="640"
     inkscape:window-height="480"
     id="namedview11"
     showgrid="false"
     inkscape:zoom="29.365243"
     inkscape:cx="25.325443"
     inkscape:cy="32"
     inkscape:current-layer="svg9"
     units="px" />
  <linearGradient
     id="_lgradient_54"
     x1="0.06818182"
     y1="0.23295455"
     x2="0.93843019"
     y2="0.77938956"
     gradientTransform="matrix(38,0,0,46,4,1)"
     gradientUnits="userSpaceOnUse">
    <stop
       offset="1.3043478260869565%"
       stop-opacity="1"
       style="stop-color:rgb(55,236,186)"
       id="stop2" />
    <stop
       offset="97.82608695652173%"
       stop-opacity="1"
       style="stop-color:rgb(114,175,211)"
       id="stop4" />
  </linearGradient>
  <g
     id="g826"
     transform="matrix(0.7826087,0,0,0.7826087,-9.9999998e-8,-0.7826088)">
    <path
       id="path7"
       d="M 12.5,35 H 9 C 8.658,35 8.323,35.034 8,35.1 V 8 C 8,6.344 9.344,5 11,5 h 1.5 v 0 17.62 c 0,1.656 0.951,2.049 2.121,0.879 L 18,20.12 l 3.379,3.379 c 1.17,1.17 2.121,0.777 2.121,-0.879 V 5 H 35 c 1.656,0 3,1.344 3,3 v 13 0 c 0,1.104 0.896,2 2,2 v 0 c 1.104,0 2,-0.896 2,-2 V 21 6 C 42,3.24 39.76,1 37,1 H 9 C 6.24,1 4,3.24 4,6 v 33 1 1 1 c 0,2.76 2.24,5 5,5 h 31 v 0 c 1.104,0 2,-0.896 2,-2 v 0 c 0,-1.104 -0.896,-2 -2,-2 v 0 H 10 C 8.896,43 8,42.104 8,41 v 0 0 c 0,-1.104 0.896,-2 2,-2 h 27 c 2.76,0 5,-2.24 5,-5 v -3 0 c 0,-1.104 -0.896,-2 -2,-2 v 0 c -1.104,0 -2,0.896 -2,2 v 0 2 c 0,1.104 -0.896,2 -2,2 H 15.5 v -5 0 c 0,-0.828 -0.672,-1.5 -1.5,-1.5 v 0 c -0.828,0 -1.5,0.672 -1.5,1.5 v 0 z m 3,-30 h 5 v 13.38 l -1.793,-1.793 c -0.39,-0.39 -1.024,-0.39 -1.414,0 L 15.5,18.38 Z"
       style="fill:url(#_lgradient_54);fill-rule:evenodd"
       inkscape:connector-curvature="0" />
  </g>
</svg>

<?xml version="1.0" encoding="UTF-8" standalone="no"?><!-- Generator: Gravit.io --><svg xmlns="http://www.w3.org/2000/svg" xmlns:xlink="http://www.w3.org/1999/xlink" style="isolation:isolate" viewBox="0 0 48 48" width="48pt" height="48pt"><linearGradient id="_lgradient_54" x1="0.0681818181817685" y1="0.23295454545454564" x2="0.9384302091713562" y2="0.779389581657281" gradientTransform="matrix(38,0,0,46,4,1)" gradientUnits="userSpaceOnUse"><stop offset="1.3043478260869565%" stop-opacity="1" style="stop-color:rgb(55,236,186)"/><stop offset="97.82608695652173%" stop-opacity="1" style="stop-color:rgb(114,175,211)"/></linearGradient><path d=" M 12.5 35 L 9 35 C 8.658 35 8.323 35.034 8 35.1 L 8 8 C 8 6.344 9.344 5 11 5 L 12.5 5 L 12.5 5 L 12.5 22.62 C 12.5 24.276 13.451 24.669 14.621 23.499 L 18 20.12 L 21.379 23.499 C 22.549 24.669 23.5 24.276 23.5 22.62 L 23.5 5 L 35 5 C 36.656 5 38 6.344 38 8 L 38 21 L 38 21 C 38 22.104 38.896 23 40 23 L 40 23 C 41.104 23 42 22.104 42 21 L 42 21 L 42 6 C 42 3.24 39.76 1 37 1 L 9 1 C 6.24 1 4 3.24 4 6 L 4 39 L 4 40 L 4 41 L 4 42 C 4 44.76 6.24 47 9 47 L 40 47 L 40 47 C 41.104 47 42 46.104 42 45 L 42 45 C 42 43.896 41.104 43 40 43 L 40 43 L 10 43 C 8.896 43 8 42.104 8 41 L 8 41 L 8 41 C 8 39.896 8.896 39 10 39 L 37 39 C 39.76 39 42 36.76 42 34 L 42 31 L 42 31 C 42 29.896 41.104 29 40 29 L 40 29 C 38.896 29 38 29.896 38 31 L 38 31 L 38 33 C 38 34.104 37.104 35 36 35 L 15.5 35 L 15.5 30 L 15.5 30 C 15.5 29.172 14.828 28.5 14 28.5 L 14 28.5 C 13.172 28.5 12.5 29.172 12.5 30 L 12.5 30 L 12.5 35 Z  M 15.5 5 L 20.5 5 L 20.5 18.38 L 18.707 16.587 C 18.317 16.197 17.683 16.197 17.293 16.587 L 15.5 18.38 L 15.5 5 L 15.5 5 Z " fill-rule="evenodd" fill="url(#_lgradient_54)"/></svg>
